X:1
T:Was Lebet, Was Schwebet, 13.10.13.10
T:Was Lebet, Was Schwebet, 13.10.13.10
T:Reinhardt Manuscript (Uttinge
T:Public  domain Courtesy of the Cyber Hymnal™
C:Reinhardt Manuscript (Uttinge
Z:Public  domain
Z:Courtesy of the Cyber Hymnal™
%%score ( 1 2 ) ( 3 4 )
L:1/8
Q:1/4=115
M:3/4
K:D
V:1 treble 
V:2 treble 
V:3 bass 
V:4 bass 
V:1
 [EA]2 | [A,D]2 [B,D]2 [CE]2 | [DF]2 [DF]2 [EA]2 | [DG]3 [DF] [CE]2 | [DF]3 [DF] [DF]2 | %5
 E2 D2 [CE]2 | [DF]2 [B,^G]2 [A,A]2 | [FA]2 [FB]2 [E^G]2 | [EA]4 [Ec]2 | [Dd]2 d2 [A=c]2 | %10
 [AB]2 [GB]2 [FA]2 | [EG]2 [EA]2 [DF]2 | [CE]3 [CE] [CE]2 | [DA]2 [EA]2 [DF]2 | [DB]2 [Gc]2 [Fd]2 | %15
 [Gd]2 [Ge]2 [Ec]2 | [Fd]4 |] %17
V:2
 x2 | x6 | x6 | x6 | x6 | (B,C) D2 x2 | x6 | x6 | x6 | x2 (FG) x2 | x6 | x6 | x6 | x6 | x6 | x6 | %16
 x4 |] %17
V:3
 [E,A,]2 | [D,F,]2 (G,F,) [E,G,]2 | [D,A,]2 [D,A,]2 [C,A,]2 | [B,,B,]3 [D,A,] [A,,A,]2 | %4
 [D,A,]3 [D,A,] [D,A,]2 | G,2 [F,A,]2 [E,G,]2 | [D,A,]2 [E,D]2 [F,C]2 | [D,D]2 [B,,D]2 [E,B,]2 | %8
 [A,C]4 A,2 | [F,A,]2 A,2 [F,D]2 | [G,D]2 [G,D]2 [D,D]2 | [E,B,]2 [C,A,]2 [D,A,]2 | %12
 [A,,A,]3 A, [G,A,]2 | [F,A,]2 [C,A,]2 [D,A,]2 | G,2 [A,E]2 [B,D]2 | [G,B,]2 [E,B,]2 A,2 | %16
 [D,A,]4 |] %17
V:4
 x2 | x6 | x6 | x6 | x6 | G,2 x4 | x6 | x6 | x6 | x2 (D,E,) x2 | x6 | x6 | x3 A, x2 | x6 | G,2 x4 | %15
 x4 A,2 | x4 |] %17

